edit_learn/extract/temp_xmps/2017/Alesana 8.19/DSC_4483.xmp
<?xpacket begin="" id="W5M0MpCehiHzreSzNTczkc9d"?>
<x:xmpmeta xmlns:x="adobe:ns:meta/" x:xmptk="Adobe XMP Core 5.6-c128 79.159124, 2016/03/18-14:01:55        ">
 <rdf:RDF xmlns:rdf="http://www.w3.org/1999/02/22-rdf-syntax-ns#">
  <rdf:Description rdf:about=""
    xmlns:xmp="http://ns.adobe.com/xap/1.0/"
    xmlns:tiff="http://ns.adobe.com/tiff/1.0/"
    xmlns:exif="http://ns.adobe.com/exif/1.0/"
    xmlns:aux="http://ns.adobe.com/exif/1.0/aux/"
    xmlns:photoshop="http://ns.adobe.com/photoshop/1.0/"
    xmlns:xmpMM="http://ns.adobe.com/xap/1.0/mm/"
    xmlns:stEvt="http://ns.adobe.com/xap/1.0/sType/ResourceEvent#"
    xmlns:dc="http://purl.org/dc/elements/1.1/"
    xmlns:crs="http://ns.adobe.com/camera-raw-settings/1.0/"
   xmp:CreatorTool="NIKON D750 Ver.1.10     "
   xmp:CreateDate="2017-08-19T20:42:39.08"
   xmp:ModifyDate="2017-08-19T20:42:39.08"
   xmp:MetadataDate="2017-11-28T21:24:34-05:00"
   tiff:Make="NIKON CORPORATION"
   tiff:Model="NIKON D750"
   tiff:Orientation="1"
   tiff:ImageWidth="6016"
   tiff:ImageLength="4016"
   exif:ExifVersion="0221"
   exif:ExposureTime="1/160"
   exif:ShutterSpeedValue="7321928/1000000"
   exif:FNumber="16/10"
   exif:ApertureValue="1356144/1000000"
   exif:ExposureProgram="1"
   exif:SensitivityType="2"
   exif:ExposureBiasValue="4/6"
   exif:MaxApertureValue="10/10"
   exif:MeteringMode="255"
   exif:LightSource="0"
   exif:FocalLength="350/10"
   exif:SensingMethod="2"
   exif:FileSource="3"
   exif:SceneType="1"
   exif:FocalLengthIn35mmFilm="35"
   exif:CustomRendered="0"
   exif:ExposureMode="1"
   exif:WhiteBalance="1"
   exif:SceneCaptureType="0"
   exif:GainControl="2"
   exif:Contrast="0"
   exif:Saturation="0"
   exif:Sharpness="0"
   exif:SubjectDistanceRange="0"
   exif:DigitalZoomRatio="1/1"
   exif:FocalPlaneXResolution="54886891/32768"
   exif:FocalPlaneYResolution="54886891/32768"
   exif:FocalPlaneResolutionUnit="3"
   exif:DateTimeOriginal="2017-08-19T20:42:39.08"
   exif:PixelXDimension="6016"
   exif:PixelYDimension="4016"
   aux:SerialNumber="3082824"
   aux:LensInfo="350/10 350/10 14/10 14/10"
   aux:Lens="35.0 mm f/1.4"
   aux:LensID="145"
   aux:ImageNumber="17685"
   aux:ApproximateFocusDistance="106/100"
   photoshop:DateCreated="2017-08-19T20:42:39.08"
   photoshop:SidecarForExtension="NEF"
   photoshop:EmbeddedXMPDigest="5214DEECE3CB48A6FF7289FE97B78947"
   xmpMM:DocumentID="5DEF6EE6A9A3C40CB0DEECE684911B42"
   xmpMM:OriginalDocumentID="5DEF6EE6A9A3C40CB0DEECE684911B42"
   xmpMM:InstanceID="xmp.iid:ad136596-eff4-9f43-be56-7f7e5dae5beb"
   dc:format="image/x-nikon-nef"
   crs:Version="9.10"
   crs:ProcessVersion="6.7"
   crs:WhiteBalance="Custom"
   crs:AutoWhiteVersion="134348800"
   crs:Temperature="19048"
   crs:Tint="+2"
   crs:Sharpness="30"
   crs:LuminanceSmoothing="0"
   crs:ColorNoiseReduction="25"
   crs:VignetteAmount="0"
   crs:ShadowTint="0"
   crs:RedHue="0"
   crs:RedSaturation="0"
   crs:GreenHue="0"
   crs:GreenSaturation="0"
   crs:BlueHue="0"
   crs:BlueSaturation="0"
   crs:GrayMixerRed="+5"
   crs:GrayMixerOrange="+13"
   crs:GrayMixerYellow="+10"
   crs:GrayMixerGreen="-25"
   crs:GrayMixerAqua="-10"
   crs:GrayMixerBlue="0"
   crs:GrayMixerPurple="0"
   crs:GrayMixerMagenta="0"
   crs:SplitToningShadowHue="0"
   crs:SplitToningShadowSaturation="0"
   crs:SplitToningHighlightHue="0"
   crs:SplitToningHighlightSaturation="0"
   crs:SplitToningBalance="0"
   crs:ParametricShadows="0"
   crs:ParametricDarks="0"
   crs:ParametricLights="0"
   crs:ParametricHighlights="0"
   crs:ParametricShadowSplit="25"
   crs:ParametricMidtoneSplit="50"
   crs:ParametricHighlightSplit="75"
   crs:SharpenRadius="+1.0"
   crs:SharpenDetail="25"
   crs:SharpenEdgeMasking="0"
   crs:PostCropVignetteAmount="0"
   crs:GrainAmount="27"
   crs:GrainSize="60"
   crs:GrainFrequency="65"
   crs:ColorNoiseReductionDetail="50"
   crs:ColorNoiseReductionSmoothness="50"
   crs:LensProfileEnable="0"
   crs:LensManualDistortionAmount="0"
   crs:PerspectiveVertical="0"
   crs:PerspectiveHorizontal="0"
   crs:PerspectiveRotate="0.0"
   crs:PerspectiveScale="100"
   crs:PerspectiveAspect="0"
   crs:PerspectiveUpright="0"
   crs:PerspectiveX="0.00"
   crs:PerspectiveY="0.00"
   crs:AutoLateralCA="0"
   crs:Exposure2012="+2.74"
   crs:Contrast2012="+100"
   crs:Highlights2012="-30"
   crs:Shadows2012="+83"
   crs:Whites2012="+20"
   crs:Blacks2012="-20"
   crs:Clarity2012="0"
   crs:Dehaze="0"
   crs:ToneMapStrength="0"
   crs:ConvertToGrayscale="True"
   crs:ToneCurveName="Medium Contrast"
   crs:ToneCurveName2012="Custom"
   crs:CameraProfile="Adobe Standard"
   crs:CameraProfileDigest="5F02E85A544BE2CCC1DFAA73D311C57C"
   crs:LensProfileSetup="LensDefaults"
   crs:UprightVersion="151388160"
   crs:UprightCenterMode="0"
   crs:UprightCenterNormX="0.5"
   crs:UprightCenterNormY="0.5"
   crs:UprightFocalMode="0"
   crs:UprightFocalLength35mm="35"
   crs:UprightPreview="False"
   crs:UprightTransformCount="6"
   crs:UprightFourSegmentsCount="0"
   crs:GrainSeed="1478628937"
   crs:HasSettings="True"
   crs:AlreadyApplied="False"
   crs:RawFileName="DSC_4483.NEF">
   <exif:ISOSpeedRatings>
    <rdf:Seq>
     <rdf:li>1000</rdf:li>
    </rdf:Seq>
   </exif:ISOSpeedRatings>
   <exif:Flash
    exif:Fired="False"
    exif:Return="0"
    exif:Mode="2"
    exif:Function="False"
    exif:RedEyeMode="False"/>
   <xmpMM:History>
    <rdf:Seq>
     <rdf:li
      stEvt:action="saved"
      stEvt:instanceID="xmp.iid:ad136596-eff4-9f43-be56-7f7e5dae5beb"
      stEvt:when="2017-11-28T21:24:34-05:00"
      stEvt:softwareAgent="Adobe Photoshop Lightroom 6.10 (Windows)"
      stEvt:changed="/metadata"/>
    </rdf:Seq>
   </xmpMM:History>
   <crs:ToneCurve>
    <rdf:Seq>
     <rdf:li>0, 0</rdf:li>
     <rdf:li>32, 22</rdf:li>
     <rdf:li>64, 56</rdf:li>
     <rdf:li>128, 128</rdf:li>
     <rdf:li>192, 196</rdf:li>
     <rdf:li>255, 255</rdf:li>
    </rdf:Seq>
   </crs:ToneCurve>
   <crs:ToneCurveRed>
    <rdf:Seq>
     <rdf:li>0, 0</rdf:li>
     <rdf:li>255, 255</rdf:li>
    </rdf:Seq>
   </crs:ToneCurveRed>
   <crs:ToneCurveGreen>
    <rdf:Seq>
     <rdf:li>0, 0</rdf:li>
     <rdf:li>255, 255</rdf:li>
    </rdf:Seq>
   </crs:ToneCurveGreen>
   <crs:ToneCurveBlue>
    <rdf:Seq>
     <rdf:li>0, 0</rdf:li>
     <rdf:li>255, 255</rdf:li>
    </rdf:Seq>
   </crs:ToneCurveBlue>
   <crs:ToneCurvePV2012>
    <rdf:Seq>
     <rdf:li>0, 7</rdf:li>
     <rdf:li>48, 28</rdf:li>
     <rdf:li>87, 78</rdf:li>
     <rdf:li>170, 194</rdf:li>
     <rdf:li>213, 227</rdf:li>
     <rdf:li>255, 237</rdf:li>
    </rdf:Seq>
   </crs:ToneCurvePV2012>
   <crs:ToneCurvePV2012Red>
    <rdf:Seq>
     <rdf:li>0, 0</rdf:li>
     <rdf:li>255, 255</rdf:li>
    </rdf:Seq>
   </crs:ToneCurvePV2012Red>
   <crs:ToneCurvePV2012Green>
    <rdf:Seq>
     <rdf:li>0, 0</rdf:li>
     <rdf:li>255, 255</rdf:li>
    </rdf:Seq>
   </crs:ToneCurvePV2012Green>
   <crs:ToneCurvePV2012Blue>
    <rdf:Seq>
     <rdf:li>0, 0</rdf:li>
     <rdf:li>255, 255</rdf:li>
    </rdf:Seq>
   </crs:ToneCurvePV2012Blue>
  </rdf:Description>
 </rdf:RDF>
</x:xmpmeta>
<?xpacket end="w"?>
