edit_learn/extract/temp_xmps/2017/LP Benefit/DSC_4125.xmp
<?xpacket begin="" id="W5M0MpCehiHzreSzNTczkc9d"?>
<x:xmpmeta xmlns:x="adobe:ns:meta/" x:xmptk="Adobe XMP Core 5.6-c128 79.159124, 2016/03/18-14:01:55        ">
 <rdf:RDF xmlns:rdf="http://www.w3.org/1999/02/22-rdf-syntax-ns#">
  <rdf:Description rdf:about=""
    xmlns:xmp="http://ns.adobe.com/xap/1.0/"
    xmlns:tiff="http://ns.adobe.com/tiff/1.0/"
    xmlns:exif="http://ns.adobe.com/exif/1.0/"
    xmlns:aux="http://ns.adobe.com/exif/1.0/aux/"
    xmlns:photoshop="http://ns.adobe.com/photoshop/1.0/"
    xmlns:xmpMM="http://ns.adobe.com/xap/1.0/mm/"
    xmlns:stEvt="http://ns.adobe.com/xap/1.0/sType/ResourceEvent#"
    xmlns:dc="http://purl.org/dc/elements/1.1/"
    xmlns:crs="http://ns.adobe.com/camera-raw-settings/1.0/"
   xmp:CreatorTool="NIKON D750 Ver.1.10     "
   xmp:CreateDate="2017-08-12T21:58:28.28"
   xmp:ModifyDate="2017-08-12T21:58:28.28"
   xmp:MetadataDate="2017-11-28T21:16:44-05:00"
   tiff:Make="NIKON CORPORATION"
   tiff:Model="NIKON D750"
   tiff:Orientation="1"
   tiff:ImageWidth="6016"
   tiff:ImageLength="4016"
   exif:ExifVersion="0221"
   exif:ExposureTime="1/200"
   exif:ShutterSpeedValue="7643856/1000000"
   exif:FNumber="14/10"
   exif:ApertureValue="970854/1000000"
   exif:ExposureProgram="1"
   exif:SensitivityType="2"
   exif:ExposureBiasValue="4/6"
   exif:MaxApertureValue="10/10"
   exif:MeteringMode="255"
   exif:LightSource="0"
   exif:FocalLength="350/10"
   exif:SensingMethod="2"
   exif:FileSource="3"
   exif:SceneType="1"
   exif:FocalLengthIn35mmFilm="35"
   exif:CustomRendered="0"
   exif:ExposureMode="1"
   exif:WhiteBalance="1"
   exif:SceneCaptureType="0"
   exif:GainControl="1"
   exif:Contrast="0"
   exif:Saturation="0"
   exif:Sharpness="0"
   exif:SubjectDistanceRange="0"
   exif:DigitalZoomRatio="1/1"
   exif:FocalPlaneXResolution="54886891/32768"
   exif:FocalPlaneYResolution="54886891/32768"
   exif:FocalPlaneResolutionUnit="3"
   exif:DateTimeOriginal="2017-08-12T21:58:28.28"
   exif:PixelXDimension="6016"
   exif:PixelYDimension="4016"
   aux:SerialNumber="3082824"
   aux:LensInfo="350/10 350/10 14/10 14/10"
   aux:Lens="35.0 mm f/1.4"
   aux:LensID="145"
   aux:ImageNumber="17145"
   aux:ApproximateFocusDistance="106/100"
   photoshop:DateCreated="2017-08-12T21:58:28.28"
   photoshop:SidecarForExtension="NEF"
   photoshop:EmbeddedXMPDigest="CFAB76DB41D6061545335B7307566F10"
   xmpMM:DocumentID="7E67AA239FC148191BEB13290C232403"
   xmpMM:OriginalDocumentID="7E67AA239FC148191BEB13290C232403"
   xmpMM:InstanceID="xmp.iid:f4679502-dba9-cd41-bcd5-ae145055664a"
   dc:format="image/x-nikon-nef"
   crs:Version="9.10"
   crs:ProcessVersion="6.7"
   crs:WhiteBalance="As Shot"
   crs:AutoWhiteVersion="134348800"
   crs:Temperature="7400"
   crs:Tint="+8"
   crs:Saturation="-26"
   crs:Sharpness="61"
   crs:LuminanceSmoothing="0"
   crs:ColorNoiseReduction="25"
   crs:VignetteAmount="0"
   crs:ShadowTint="0"
   crs:RedHue="+43"
   crs:RedSaturation="0"
   crs:GreenHue="+43"
   crs:GreenSaturation="-36"
   crs:BlueHue="0"
   crs:BlueSaturation="-14"
   crs:Vibrance="-6"
   crs:HueAdjustmentRed="-12"
   crs:HueAdjustmentOrange="-19"
   crs:HueAdjustmentYellow="+8"
   crs:HueAdjustmentGreen="+2"
   crs:HueAdjustmentAqua="+1"
   crs:HueAdjustmentBlue="-5"
   crs:HueAdjustmentPurple="-1"
   crs:HueAdjustmentMagenta="0"
   crs:SaturationAdjustmentRed="-10"
   crs:SaturationAdjustmentOrange="+18"
   crs:SaturationAdjustmentYellow="-23"
   crs:SaturationAdjustmentGreen="-44"
   crs:SaturationAdjustmentAqua="+4"
   crs:SaturationAdjustmentBlue="+4"
   crs:SaturationAdjustmentPurple="-6"
   crs:SaturationAdjustmentMagenta="-6"
   crs:LuminanceAdjustmentRed="-17"
   crs:LuminanceAdjustmentOrange="-11"
   crs:LuminanceAdjustmentYellow="-1"
   crs:LuminanceAdjustmentGreen="+30"
   crs:LuminanceAdjustmentAqua="0"
   crs:LuminanceAdjustmentBlue="+16"
   crs:LuminanceAdjustmentPurple="0"
   crs:LuminanceAdjustmentMagenta="0"
   crs:SplitToningShadowHue="49"
   crs:SplitToningShadowSaturation="19"
   crs:SplitToningHighlightHue="235"
   crs:SplitToningHighlightSaturation="4"
   crs:SplitToningBalance="0"
   crs:ParametricShadows="0"
   crs:ParametricDarks="0"
   crs:ParametricLights="0"
   crs:ParametricHighlights="0"
   crs:ParametricShadowSplit="25"
   crs:ParametricMidtoneSplit="50"
   crs:ParametricHighlightSplit="75"
   crs:SharpenRadius="+1.0"
   crs:SharpenDetail="25"
   crs:SharpenEdgeMasking="0"
   crs:PostCropVignetteAmount="0"
   crs:GrainAmount="0"
   crs:ColorNoiseReductionDetail="50"
   crs:ColorNoiseReductionSmoothness="50"
   crs:LensProfileEnable="1"
   crs:LensManualDistortionAmount="0"
   crs:PerspectiveVertical="0"
   crs:PerspectiveHorizontal="0"
   crs:PerspectiveRotate="0.0"
   crs:PerspectiveScale="100"
   crs:PerspectiveAspect="0"
   crs:PerspectiveUpright="0"
   crs:PerspectiveX="0.00"
   crs:PerspectiveY="0.00"
   crs:AutoLateralCA="0"
   crs:Exposure2012="-1.31"
   crs:Contrast2012="+40"
   crs:Highlights2012="-30"
   crs:Shadows2012="+100"
   crs:Whites2012="-21"
   crs:Blacks2012="+21"
   crs:Clarity2012="0"
   crs:DefringePurpleAmount="0"
   crs:DefringePurpleHueLo="30"
   crs:DefringePurpleHueHi="70"
   crs:DefringeGreenAmount="0"
   crs:DefringeGreenHueLo="40"
   crs:DefringeGreenHueHi="60"
   crs:Dehaze="+31"
   crs:ToneMapStrength="0"
   crs:ConvertToGrayscale="False"
   crs:ToneCurveName="Medium Contrast"
   crs:ToneCurveName2012="Custom"
   crs:CameraProfile="Adobe Standard"
   crs:CameraProfileDigest="5F02E85A544BE2CCC1DFAA73D311C57C"
   crs:LensProfileSetup="LensDefaults"
   crs:LensProfileName="Adobe (SIGMA 35mm F1.4 DG HSM A012, NIKON CORPORATION)"
   crs:LensProfileFilename="NIKON CORPORATION (SIGMA 35mm F1.4 DG HSM A012) - RAW.lcp"
   crs:LensProfileDigest="5785773E33C99C2D82F0EE75A19F6640"
   crs:LensProfileDistortionScale="100"
   crs:LensProfileChromaticAberrationScale="100"
   crs:LensProfileVignettingScale="100"
   crs:UprightVersion="151388160"
   crs:UprightCenterMode="0"
   crs:UprightCenterNormX="0.5"
   crs:UprightCenterNormY="0.5"
   crs:UprightFocalMode="0"
   crs:UprightFocalLength35mm="35"
   crs:UprightPreview="False"
   crs:UprightTransformCount="6"
   crs:UprightFourSegmentsCount="0"
   crs:HasSettings="True"
   crs:AlreadyApplied="False"
   crs:RawFileName="DSC_4125.NEF">
   <exif:ISOSpeedRatings>
    <rdf:Seq>
     <rdf:li>800</rdf:li>
    </rdf:Seq>
   </exif:ISOSpeedRatings>
   <exif:Flash
    exif:Fired="True"
    exif:Return="3"
    exif:Mode="1"
    exif:Function="False"
    exif:RedEyeMode="False"/>
   <xmpMM:History>
    <rdf:Seq>
     <rdf:li
      stEvt:action="saved"
      stEvt:instanceID="xmp.iid:f4679502-dba9-cd41-bcd5-ae145055664a"
      stEvt:when="2017-11-28T21:16:44-05:00"
      stEvt:softwareAgent="Adobe Photoshop Lightroom 6.10 (Windows)"
      stEvt:changed="/metadata"/>
    </rdf:Seq>
   </xmpMM:History>
   <crs:ToneCurve>
    <rdf:Seq>
     <rdf:li>0, 0</rdf:li>
     <rdf:li>32, 22</rdf:li>
     <rdf:li>64, 56</rdf:li>
     <rdf:li>128, 128</rdf:li>
     <rdf:li>192, 196</rdf:li>
     <rdf:li>255, 255</rdf:li>
    </rdf:Seq>
   </crs:ToneCurve>
   <crs:ToneCurveRed>
    <rdf:Seq>
     <rdf:li>0, 0</rdf:li>
     <rdf:li>255, 255</rdf:li>
    </rdf:Seq>
   </crs:ToneCurveRed>
   <crs:ToneCurveGreen>
    <rdf:Seq>
     <rdf:li>0, 0</rdf:li>
     <rdf:li>255, 255</rdf:li>
    </rdf:Seq>
   </crs:ToneCurveGreen>
   <crs:ToneCurveBlue>
    <rdf:Seq>
     <rdf:li>0, 0</rdf:li>
     <rdf:li>255, 255</rdf:li>
    </rdf:Seq>
   </crs:ToneCurveBlue>
   <crs:ToneCurvePV2012>
    <rdf:Seq>
     <rdf:li>0, 0</rdf:li>
     <rdf:li>122, 118</rdf:li>
     <rdf:li>181, 176</rdf:li>
     <rdf:li>255, 217</rdf:li>
    </rdf:Seq>
   </crs:ToneCurvePV2012>
   <crs:ToneCurvePV2012Red>
    <rdf:Seq>
     <rdf:li>0, 0</rdf:li>
     <rdf:li>70, 38</rdf:li>
     <rdf:li>117, 106</rdf:li>
     <rdf:li>183, 182</rdf:li>
     <rdf:li>255, 255</rdf:li>
    </rdf:Seq>
   </crs:ToneCurvePV2012Red>
   <crs:ToneCurvePV2012Green>
    <rdf:Seq>
     <rdf:li>0, 0</rdf:li>
     <rdf:li>69, 38</rdf:li>
     <rdf:li>119, 111</rdf:li>
     <rdf:li>182, 182</rdf:li>
     <rdf:li>255, 255</rdf:li>
    </rdf:Seq>
   </crs:ToneCurvePV2012Green>
   <crs:ToneCurvePV2012Blue>
    <rdf:Seq>
     <rdf:li>0, 0</rdf:li>
     <rdf:li>73, 39</rdf:li>
     <rdf:li>123, 114</rdf:li>
     <rdf:li>169, 169</rdf:li>
     <rdf:li>255, 255</rdf:li>
    </rdf:Seq>
   </crs:ToneCurvePV2012Blue>
   <crs:PaintBasedCorrections>
    <rdf:Seq>
     <rdf:li>
      <rdf:Description
       crs:What="Correction"
       crs:CorrectionAmount="1.000000"
       crs:CorrectionActive="true"
       crs:LocalExposure="0.000000"
       crs:LocalSaturation="0.000000"
       crs:LocalContrast="0.000000"
       crs:LocalClarity="0.000000"
       crs:LocalSharpness="1.000000"
       crs:LocalBrightness="0.000000"
       crs:LocalToningHue="0.000000"
       crs:LocalToningSaturation="0.000000"
       crs:LocalExposure2012="0.172500"
       crs:LocalContrast2012="0.149430"
       crs:LocalHighlights2012="0.011490"
       crs:LocalShadows2012="0.000000"
       crs:LocalWhites2012="0.000000"
       crs:LocalBlacks2012="0.000000"
       crs:LocalClarity2012="0.000000"
       crs:LocalDehaze="0.000000"
       crs:LocalLuminanceNoise="0.000000"
       crs:LocalMoire="0.000000"
       crs:LocalDefringe="0.000000"
       crs:LocalTemperature="-0.011490"
       crs:LocalTint="0.000000">
      <crs:CorrectionMasks>
       <rdf:Seq>
        <rdf:li>
         <rdf:Description
          crs:What="Mask/Paint"
          crs:MaskValue="1.000000"
          crs:Radius="0.128557"
          crs:Flow="1.000000"
          crs:CenterWeight="0.000000">
         <crs:Dabs>
          <rdf:Seq>
           <rdf:li>d 0.508568 0.435807</rdf:li>
          </rdf:Seq>
         </crs:Dabs>
         </rdf:Description>
        </rdf:li>
        <rdf:li>
         <rdf:Description
          crs:What="Mask/Paint"
          crs:MaskValue="1.000000"
          crs:Radius="0.128588"
          crs:Flow="1.000000"
          crs:CenterWeight="0.000000">
         <crs:Dabs>
          <rdf:Seq>
           <rdf:li>d 0.508569 0.525682</rdf:li>
           <rdf:li>r 0.128582</rdf:li>
           <rdf:li>d 0.481529 0.527529</rdf:li>
           <rdf:li>r 0.128567</rdf:li>
           <rdf:li>d 0.468827 0.473638</rdf:li>
           <rdf:li>r 0.128509</rdf:li>
           <rdf:li>d 0.466689 0.416080</rdf:li>
           <rdf:li>r 0.128417</rdf:li>
           <rdf:li>d 0.478173 0.362545</rdf:li>
           <rdf:li>r 0.128353</rdf:li>
           <rdf:li>d 0.511170 0.336174</rdf:li>
           <rdf:li>r 0.128308</rdf:li>
           <rdf:li>d 0.549012 0.335016</rdf:li>
           <rdf:li>r 0.128386</rdf:li>
           <rdf:li>d 0.567251 0.384651</rdf:li>
           <rdf:li>r 0.128468</rdf:li>
           <rdf:li>d 0.568922 0.441958</rdf:li>
          </rdf:Seq>
         </crs:Dabs>
         </rdf:Description>
        </rdf:li>
       </rdf:Seq>
      </crs:CorrectionMasks>
      </rdf:Description>
     </rdf:li>
    </rdf:Seq>
   </crs:PaintBasedCorrections>
  </rdf:Description>
 </rdf:RDF>
</x:xmpmeta>
<?xpacket end="w"?>
