edit_learn/extract/temp_xmps/2017/LP Benefit/LP Benefit/DSC_2414.xmp
<?xpacket begin="" id="W5M0MpCehiHzreSzNTczkc9d"?>
<x:xmpmeta xmlns:x="adobe:ns:meta/" x:xmptk="Adobe XMP Core 5.6-c128 79.159124, 2016/03/18-14:01:55        ">
 <rdf:RDF xmlns:rdf="http://www.w3.org/1999/02/22-rdf-syntax-ns#">
  <rdf:Description rdf:about=""
    xmlns:xmp="http://ns.adobe.com/xap/1.0/"
    xmlns:tiff="http://ns.adobe.com/tiff/1.0/"
    xmlns:exif="http://ns.adobe.com/exif/1.0/"
    xmlns:aux="http://ns.adobe.com/exif/1.0/aux/"
    xmlns:photoshop="http://ns.adobe.com/photoshop/1.0/"
    xmlns:xmpMM="http://ns.adobe.com/xap/1.0/mm/"
    xmlns:stEvt="http://ns.adobe.com/xap/1.0/sType/ResourceEvent#"
    xmlns:dc="http://purl.org/dc/elements/1.1/"
    xmlns:crs="http://ns.adobe.com/camera-raw-settings/1.0/"
   xmp:CreatorTool="NIKON D750 Ver.1.10     "
   xmp:CreateDate="2017-08-11T22:16:59.77"
   xmp:ModifyDate="2017-08-11T22:16:59.77"
   xmp:MetadataDate="2017-10-22T13:58:56-04:00"
   tiff:Make="NIKON CORPORATION"
   tiff:Model="NIKON D750"
   tiff:Orientation="1"
   tiff:ImageWidth="6016"
   tiff:ImageLength="4016"
   exif:ExifVersion="0221"
   exif:ExposureTime="1/80"
   exif:ShutterSpeedValue="6321928/1000000"
   exif:FNumber="14/10"
   exif:ApertureValue="970854/1000000"
   exif:ExposureProgram="1"
   exif:SensitivityType="2"
   exif:ExposureBiasValue="4/6"
   exif:MaxApertureValue="10/10"
   exif:MeteringMode="5"
   exif:LightSource="0"
   exif:FocalLength="350/10"
   exif:SensingMethod="2"
   exif:FileSource="3"
   exif:SceneType="1"
   exif:FocalLengthIn35mmFilm="35"
   exif:CustomRendered="0"
   exif:ExposureMode="1"
   exif:WhiteBalance="1"
   exif:SceneCaptureType="0"
   exif:GainControl="2"
   exif:Contrast="0"
   exif:Saturation="0"
   exif:Sharpness="0"
   exif:SubjectDistanceRange="0"
   exif:DigitalZoomRatio="1/1"
   exif:FocalPlaneXResolution="54886891/32768"
   exif:FocalPlaneYResolution="54886891/32768"
   exif:FocalPlaneResolutionUnit="3"
   exif:DateTimeOriginal="2017-08-11T22:16:59.77"
   exif:PixelXDimension="6016"
   exif:PixelYDimension="4016"
   aux:SerialNumber="3082824"
   aux:LensInfo="350/10 350/10 14/10 14/10"
   aux:Lens="35.0 mm f/1.4"
   aux:LensID="145"
   aux:ImageNumber="15046"
   aux:ApproximateFocusDistance="211/100"
   photoshop:DateCreated="2017-08-11T22:16:59.77"
   photoshop:SidecarForExtension="NEF"
   photoshop:EmbeddedXMPDigest="6AB67E4B11C0BB59204474F4F63B7502"
   xmpMM:DocumentID="81F886C509793F3A4B6F1B727AE26F34"
   xmpMM:OriginalDocumentID="81F886C509793F3A4B6F1B727AE26F34"
   xmpMM:InstanceID="xmp.iid:1f28f088-c981-2e44-8328-f3b61e133431"
   dc:format="image/x-nikon-nef"
   crs:Version="9.10"
   crs:ProcessVersion="6.7"
   crs:WhiteBalance="As Shot"
   crs:AutoWhiteVersion="134348800"
   crs:Temperature="6100"
   crs:Tint="+3"
   crs:Saturation="-55"
   crs:Sharpness="30"
   crs:LuminanceSmoothing="0"
   crs:ColorNoiseReduction="0"
   crs:VignetteAmount="0"
   crs:ShadowTint="-2"
   crs:RedHue="+26"
   crs:RedSaturation="+50"
   crs:GreenHue="+44"
   crs:GreenSaturation="0"
   crs:BlueHue="-11"
   crs:BlueSaturation="0"
   crs:Vibrance="0"
   crs:HueAdjustmentRed="-10"
   crs:HueAdjustmentOrange="-21"
   crs:HueAdjustmentYellow="+12"
   crs:HueAdjustmentGreen="-17"
   crs:HueAdjustmentAqua="+22"
   crs:HueAdjustmentBlue="+10"
   crs:HueAdjustmentPurple="+20"
   crs:HueAdjustmentMagenta="+20"
   crs:SaturationAdjustmentRed="+20"
   crs:SaturationAdjustmentOrange="+46"
   crs:SaturationAdjustmentYellow="-52"
   crs:SaturationAdjustmentGreen="-72"
   crs:SaturationAdjustmentAqua="-23"
   crs:SaturationAdjustmentBlue="-50"
   crs:SaturationAdjustmentPurple="-35"
   crs:SaturationAdjustmentMagenta="-35"
   crs:LuminanceAdjustmentRed="0"
   crs:LuminanceAdjustmentOrange="0"
   crs:LuminanceAdjustmentYellow="0"
   crs:LuminanceAdjustmentGreen="0"
   crs:LuminanceAdjustmentAqua="-12"
   crs:LuminanceAdjustmentBlue="-40"
   crs:LuminanceAdjustmentPurple="0"
   crs:LuminanceAdjustmentMagenta="0"
   crs:SplitToningShadowHue="0"
   crs:SplitToningShadowSaturation="0"
   crs:SplitToningHighlightHue="0"
   crs:SplitToningHighlightSaturation="0"
   crs:SplitToningBalance="0"
   crs:ParametricShadows="0"
   crs:ParametricDarks="0"
   crs:ParametricLights="0"
   crs:ParametricHighlights="0"
   crs:ParametricShadowSplit="25"
   crs:ParametricMidtoneSplit="50"
   crs:ParametricHighlightSplit="75"
   crs:SharpenRadius="+1.0"
   crs:SharpenDetail="25"
   crs:SharpenEdgeMasking="0"
   crs:PostCropVignetteAmount="0"
   crs:GrainAmount="15"
   crs:GrainSize="45"
   crs:GrainFrequency="50"
   crs:LensProfileEnable="0"
   crs:LensManualDistortionAmount="0"
   crs:PerspectiveVertical="0"
   crs:PerspectiveHorizontal="0"
   crs:PerspectiveRotate="0.0"
   crs:PerspectiveScale="100"
   crs:PerspectiveAspect="0"
   crs:PerspectiveUpright="0"
   crs:PerspectiveX="0.00"
   crs:PerspectiveY="0.00"
   crs:AutoLateralCA="0"
   crs:Exposure2012="0.00"
   crs:Contrast2012="+29"
   crs:Highlights2012="-53"
   crs:Shadows2012="0"
   crs:Whites2012="-33"
   crs:Blacks2012="+7"
   crs:Clarity2012="-10"
   crs:DefringePurpleAmount="0"
   crs:DefringePurpleHueLo="30"
   crs:DefringePurpleHueHi="70"
   crs:DefringeGreenAmount="0"
   crs:DefringeGreenHueLo="40"
   crs:DefringeGreenHueHi="60"
   crs:Dehaze="0"
   crs:ToneMapStrength="0"
   crs:ConvertToGrayscale="False"
   crs:ToneCurveName="Medium Contrast"
   crs:ToneCurveName2012="Custom"
   crs:CameraProfile="Adobe Standard"
   crs:CameraProfileDigest="5F02E85A544BE2CCC1DFAA73D311C57C"
   crs:LensProfileSetup="LensDefaults"
   crs:UprightVersion="151388160"
   crs:UprightCenterMode="0"
   crs:UprightCenterNormX="0.5"
   crs:UprightCenterNormY="0.5"
   crs:UprightFocalMode="0"
   crs:UprightFocalLength35mm="35"
   crs:UprightPreview="False"
   crs:UprightTransformCount="6"
   crs:UprightFourSegmentsCount="0"
   crs:HasSettings="True"
   crs:CropTop="0.07957"
   crs:CropLeft="0.215947"
   crs:CropBottom="0.782338"
   crs:CropRight="1"
   crs:CropAngle="-2.8312"
   crs:CropConstrainToWarp="0"
   crs:HasCrop="True"
   crs:AlreadyApplied="False"
   crs:RawFileName="DSC_2414.NEF">
   <exif:ISOSpeedRatings>
    <rdf:Seq>
     <rdf:li>1600</rdf:li>
    </rdf:Seq>
   </exif:ISOSpeedRatings>
   <exif:Flash
    exif:Fired="False"
    exif:Return="0"
    exif:Mode="2"
    exif:Function="False"
    exif:RedEyeMode="False"/>
   <xmpMM:History>
    <rdf:Seq>
     <rdf:li
      stEvt:action="saved"
      stEvt:instanceID="xmp.iid:1f28f088-c981-2e44-8328-f3b61e133431"
      stEvt:when="2017-10-22T13:58:56-04:00"
      stEvt:softwareAgent="Adobe Photoshop Lightroom 6.10 (Windows)"
      stEvt:changed="/metadata"/>
    </rdf:Seq>
   </xmpMM:History>
   <crs:ToneCurve>
    <rdf:Seq>
     <rdf:li>0, 0</rdf:li>
     <rdf:li>32, 22</rdf:li>
     <rdf:li>64, 56</rdf:li>
     <rdf:li>128, 128</rdf:li>
     <rdf:li>192, 196</rdf:li>
     <rdf:li>255, 255</rdf:li>
    </rdf:Seq>
   </crs:ToneCurve>
   <crs:ToneCurveRed>
    <rdf:Seq>
     <rdf:li>0, 0</rdf:li>
     <rdf:li>255, 255</rdf:li>
    </rdf:Seq>
   </crs:ToneCurveRed>
   <crs:ToneCurveGreen>
    <rdf:Seq>
     <rdf:li>0, 0</rdf:li>
     <rdf:li>255, 255</rdf:li>
    </rdf:Seq>
   </crs:ToneCurveGreen>
   <crs:ToneCurveBlue>
    <rdf:Seq>
     <rdf:li>0, 0</rdf:li>
     <rdf:li>255, 255</rdf:li>
    </rdf:Seq>
   </crs:ToneCurveBlue>
   <crs:ToneCurvePV2012>
    <rdf:Seq>
     <rdf:li>0, 0</rdf:li>
     <rdf:li>56, 48</rdf:li>
     <rdf:li>188, 186</rdf:li>
     <rdf:li>255, 232</rdf:li>
    </rdf:Seq>
   </crs:ToneCurvePV2012>
   <crs:ToneCurvePV2012Red>
    <rdf:Seq>
     <rdf:li>0, 0</rdf:li>
     <rdf:li>40, 12</rdf:li>
     <rdf:li>85, 57</rdf:li>
     <rdf:li>124, 122</rdf:li>
     <rdf:li>187, 195</rdf:li>
     <rdf:li>255, 255</rdf:li>
    </rdf:Seq>
   </crs:ToneCurvePV2012Red>
   <crs:ToneCurvePV2012Green>
    <rdf:Seq>
     <rdf:li>0, 0</rdf:li>
     <rdf:li>40, 14</rdf:li>
     <rdf:li>83, 59</rdf:li>
     <rdf:li>123, 126</rdf:li>
     <rdf:li>173, 184</rdf:li>
     <rdf:li>255, 255</rdf:li>
    </rdf:Seq>
   </crs:ToneCurvePV2012Green>
   <crs:ToneCurvePV2012Blue>
    <rdf:Seq>
     <rdf:li>0, 0</rdf:li>
     <rdf:li>39, 13</rdf:li>
     <rdf:li>88, 65</rdf:li>
     <rdf:li>123, 124</rdf:li>
     <rdf:li>184, 196</rdf:li>
     <rdf:li>255, 255</rdf:li>
    </rdf:Seq>
   </crs:ToneCurvePV2012Blue>
   <crs:PaintBasedCorrections>
    <rdf:Seq>
     <rdf:li>
      <rdf:Description
       crs:What="Correction"
       crs:CorrectionAmount="1.000000"
       crs:CorrectionActive="true"
       crs:LocalExposure="0.000000"
       crs:LocalSaturation="0.000000"
       crs:LocalContrast="0.000000"
       crs:LocalClarity="0.000000"
       crs:LocalSharpness="1.000000"
       crs:LocalBrightness="0.000000"
       crs:LocalToningHue="0.000000"
       crs:LocalToningSaturation="0.000000"
       crs:LocalExposure2012="-0.011500"
       crs:LocalContrast2012="0.471260"
       crs:LocalHighlights2012="0.011490"
       crs:LocalShadows2012="0.000000"
       crs:LocalWhites2012="0.000000"
       crs:LocalBlacks2012="0.000000"
       crs:LocalClarity2012="0.000000"
       crs:LocalDehaze="0.000000"
       crs:LocalLuminanceNoise="0.000000"
       crs:LocalMoire="0.000000"
       crs:LocalDefringe="0.000000"
       crs:LocalTemperature="0.000000"
       crs:LocalTint="0.000000">
      <crs:CorrectionMasks>
       <rdf:Seq>
        <rdf:li>
         <rdf:Description
          crs:What="Mask/Paint"
          crs:MaskValue="1.000000"
          crs:Radius="0.144806"
          crs:Flow="1.000000"
          crs:CenterWeight="0.000000">
         <crs:Dabs>
          <rdf:Seq>
           <rdf:li>d 0.491493 0.596317</rdf:li>
           <rdf:li>d 0.472944 0.538408</rdf:li>
           <rdf:li>d 0.436763 0.509780</rdf:li>
           <rdf:li>d 0.426276 0.572172</rdf:li>
           <rdf:li>d 0.448960 0.563604</rdf:li>
           <rdf:li>d 0.452303 0.498770</rdf:li>
           <rdf:li>d 0.472857 0.456091</rdf:li>
           <rdf:li>d 0.514637 0.471429</rdf:li>
           <rdf:li>d 0.547284 0.507702</rdf:li>
           <rdf:li>d 0.558794 0.567852</rdf:li>
           <rdf:li>d 0.547316 0.626681</rdf:li>
           <rdf:li>d 0.517294 0.673717</rdf:li>
           <rdf:li>d 0.480870 0.709044</rdf:li>
           <rdf:li>d 0.444174 0.743873</rdf:li>
           <rdf:li>d 0.424205 0.791513</rdf:li>
           <rdf:li>d 0.461548 0.824556</rdf:li>
           <rdf:li>d 0.495526 0.864929</rdf:li>
          </rdf:Seq>
         </crs:Dabs>
         </rdf:Description>
        </rdf:li>
        <rdf:li>
         <rdf:Description
          crs:What="Mask/Paint"
          crs:MaskValue="1.000000"
          crs:Radius="0.180551"
          crs:Flow="1.000000"
          crs:CenterWeight="0.000000">
         <crs:Dabs>
          <rdf:Seq>
           <rdf:li>d 0.386578 0.677054</rdf:li>
           <rdf:li>d 0.353416 0.612973</rdf:li>
           <rdf:li>d 0.319619 0.550042</rdf:li>
           <rdf:li>d 0.295821 0.477608</rdf:li>
           <rdf:li>d 0.294437 0.397975</rdf:li>
           <rdf:li>d 0.308817 0.320238</rdf:li>
           <rdf:li>d 0.325759 0.243685</rdf:li>
           <rdf:li>d 0.340554 0.166055</rdf:li>
           <rdf:li>d 0.360919 0.091268</rdf:li>
           <rdf:li>d 0.401887 0.039475</rdf:li>
          </rdf:Seq>
         </crs:Dabs>
         </rdf:Description>
        </rdf:li>
        <rdf:li>
         <rdf:Description
          crs:What="Mask/Paint"
          crs:MaskValue="1.000000"
          crs:Radius="0.180551"
          crs:Flow="1.000000"
          crs:CenterWeight="0.000000">
         <crs:Dabs>
          <rdf:Seq>
           <rdf:li>d 0.728733 0.024079</rdf:li>
           <rdf:li>d 0.769960 0.076708</rdf:li>
           <rdf:li>d 0.813641 0.124570</rdf:li>
           <rdf:li>d 0.857638 0.171763</rdf:li>
           <rdf:li>d 0.888333 0.235933</rdf:li>
           <rdf:li>d 0.893431 0.316096</rdf:li>
           <rdf:li>d 0.894963 0.397204</rdf:li>
           <rdf:li>d 0.889149 0.477810</rdf:li>
           <rdf:li>d 0.880577 0.557885</rdf:li>
           <rdf:li>d 0.870598 0.637636</rdf:li>
           <rdf:li>d 0.860620 0.717387</rdf:li>
           <rdf:li>d 0.838836 0.790925</rdf:li>
           <rdf:li>d 0.806441 0.852365</rdf:li>
          </rdf:Seq>
         </crs:Dabs>
         </rdf:Description>
        </rdf:li>
        <rdf:li>
         <rdf:Description
          crs:What="Mask/Paint"
          crs:MaskValue="1.000000"
          crs:Radius="0.180551"
          crs:Flow="1.000000"
          crs:CenterWeight="0.000000">
         <crs:Dabs>
          <rdf:Seq>
           <rdf:li>d 0.664461 0.770538</rdf:li>
           <rdf:li>d 0.611279 0.785928</rdf:li>
           <rdf:li>d 0.558097 0.801318</rdf:li>
           <rdf:li>d 0.504499 0.810198</rdf:li>
           <rdf:li>d 0.450334 0.810198</rdf:li>
           <rdf:li>d 0.396222 0.807466</rdf:li>
           <rdf:li>d 0.342150 0.802699</rdf:li>
          </rdf:Seq>
         </crs:Dabs>
         </rdf:Description>
        </rdf:li>
        <rdf:li>
         <rdf:Description
          crs:What="Mask/Paint"
          crs:MaskValue="1.000000"
          crs:Radius="0.180551"
          crs:Flow="1.000000"
          crs:CenterWeight="0.000000">
         <crs:Dabs>
          <rdf:Seq>
           <rdf:li>d 0.380907 0.713881</rdf:li>
          </rdf:Seq>
         </crs:Dabs>
         </rdf:Description>
        </rdf:li>
        <rdf:li>
         <rdf:Description
          crs:What="Mask/Paint"
          crs:MaskValue="1.000000"
          crs:Radius="0.180551"
          crs:Flow="1.000000"
          crs:CenterWeight="0.000000">
         <crs:Dabs>
          <rdf:Seq>
           <rdf:li>d 0.479206 0.616147</rdf:li>
          </rdf:Seq>
         </crs:Dabs>
         </rdf:Description>
        </rdf:li>
        <rdf:li>
         <rdf:Description
          crs:What="Mask/Paint"
          crs:MaskValue="1.000000"
          crs:Radius="0.180551"
          crs:Flow="1.000000"
          crs:CenterWeight="0.000000">
         <crs:Dabs>
          <rdf:Seq>
           <rdf:li>d 0.479206 0.407932</rdf:li>
          </rdf:Seq>
         </crs:Dabs>
         </rdf:Description>
        </rdf:li>
       </rdf:Seq>
      </crs:CorrectionMasks>
      </rdf:Description>
     </rdf:li>
    </rdf:Seq>
   </crs:PaintBasedCorrections>
  </rdf:Description>
 </rdf:RDF>
</x:xmpmeta>
<?xpacket end="w"?>
