edit_learn/extract/temp_xmps/2017/2017-06-29/2017/2017-06-29/from colton/DSC_1783.xmp
<?xpacket begin="" id="W5M0MpCehiHzreSzNTczkc9d"?>
<x:xmpmeta xmlns:x="adobe:ns:meta/" x:xmptk="Adobe XMP Core 5.6-c128 79.159124, 2016/03/18-14:01:55        ">
 <rdf:RDF xmlns:rdf="http://www.w3.org/1999/02/22-rdf-syntax-ns#">
  <rdf:Description rdf:about=""
    xmlns:xmp="http://ns.adobe.com/xap/1.0/"
    xmlns:tiff="http://ns.adobe.com/tiff/1.0/"
    xmlns:exif="http://ns.adobe.com/exif/1.0/"
    xmlns:aux="http://ns.adobe.com/exif/1.0/aux/"
    xmlns:photoshop="http://ns.adobe.com/photoshop/1.0/"
    xmlns:xmpMM="http://ns.adobe.com/xap/1.0/mm/"
    xmlns:stEvt="http://ns.adobe.com/xap/1.0/sType/ResourceEvent#"
    xmlns:dc="http://purl.org/dc/elements/1.1/"
    xmlns:crs="http://ns.adobe.com/camera-raw-settings/1.0/"
   xmp:CreatorTool="NIKON D750 Ver.1.11     "
   xmp:CreateDate="2017-06-29T19:11:51.77"
   xmp:ModifyDate="2017-06-29T19:11:51.77"
   xmp:MetadataDate="2017-11-28T21:24:30-05:00"
   tiff:Make="NIKON CORPORATION"
   tiff:Model="NIKON D750"
   tiff:Orientation="1"
   tiff:ImageWidth="6016"
   tiff:ImageLength="4016"
   exif:ExifVersion="0221"
   exif:ExposureTime="1/125"
   exif:ShutterSpeedValue="6965784/1000000"
   exif:FNumber="2/1"
   exif:ApertureValue="2/1"
   exif:ExposureProgram="1"
   exif:SensitivityType="2"
   exif:ExposureBiasValue="0/6"
   exif:MaxApertureValue="10/10"
   exif:MeteringMode="2"
   exif:LightSource="0"
   exif:FocalLength="850/10"
   exif:SensingMethod="2"
   exif:FileSource="3"
   exif:SceneType="1"
   exif:FocalLengthIn35mmFilm="85"
   exif:CustomRendered="0"
   exif:ExposureMode="1"
   exif:WhiteBalance="1"
   exif:SceneCaptureType="0"
   exif:GainControl="2"
   exif:Contrast="0"
   exif:Saturation="0"
   exif:Sharpness="0"
   exif:SubjectDistanceRange="0"
   exif:DigitalZoomRatio="1/1"
   exif:FocalPlaneXResolution="54886891/32768"
   exif:FocalPlaneYResolution="54886891/32768"
   exif:FocalPlaneResolutionUnit="3"
   exif:DateTimeOriginal="2017-06-29T19:11:51.77"
   exif:PixelXDimension="6016"
   exif:PixelYDimension="4016"
   aux:SerialNumber="3128126"
   aux:LensInfo="850/10 850/10 14/10 14/10"
   aux:Lens="85.0 mm f/1.4"
   aux:LensID="174"
   aux:ImageNumber="1862"
   aux:ApproximateFocusDistance="4294967295/1"
   photoshop:DateCreated="2017-06-29T19:11:51.77"
   photoshop:SidecarForExtension="NEF"
   photoshop:EmbeddedXMPDigest="92939468197C65722423634E87E93767"
   xmpMM:DocumentID="EBDF9AA9A8E9FF6BEB16E0398801E7ED"
   xmpMM:OriginalDocumentID="EBDF9AA9A8E9FF6BEB16E0398801E7ED"
   xmpMM:InstanceID="xmp.iid:b4f15c0d-b6b7-9842-93b7-54f923ca9686"
   dc:format="image/x-nikon-nef"
   crs:Version="9.10"
   crs:ProcessVersion="6.7"
   crs:WhiteBalance="Custom"
   crs:AutoWhiteVersion="134348800"
   crs:Temperature="4143"
   crs:Tint="+8"
   crs:Sharpness="60"
   crs:LuminanceSmoothing="0"
   crs:ColorNoiseReduction="25"
   crs:VignetteAmount="0"
   crs:ShadowTint="0"
   crs:RedHue="0"
   crs:RedSaturation="0"
   crs:GreenHue="0"
   crs:GreenSaturation="0"
   crs:BlueHue="0"
   crs:BlueSaturation="0"
   crs:GrayMixerRed="+5"
   crs:GrayMixerOrange="+3"
   crs:GrayMixerYellow="+1"
   crs:GrayMixerGreen="+8"
   crs:GrayMixerAqua="-3"
   crs:GrayMixerBlue="0"
   crs:GrayMixerPurple="0"
   crs:GrayMixerMagenta="0"
   crs:SplitToningShadowHue="0"
   crs:SplitToningShadowSaturation="0"
   crs:SplitToningHighlightHue="0"
   crs:SplitToningHighlightSaturation="0"
   crs:SplitToningBalance="0"
   crs:ParametricShadows="0"
   crs:ParametricDarks="0"
   crs:ParametricLights="0"
   crs:ParametricHighlights="0"
   crs:ParametricShadowSplit="25"
   crs:ParametricMidtoneSplit="50"
   crs:ParametricHighlightSplit="75"
   crs:SharpenRadius="+1.0"
   crs:SharpenDetail="25"
   crs:SharpenEdgeMasking="0"
   crs:PostCropVignetteAmount="0"
   crs:GrainAmount="18"
   crs:GrainSize="24"
   crs:GrainFrequency="50"
   crs:ColorNoiseReductionDetail="50"
   crs:ColorNoiseReductionSmoothness="50"
   crs:LensProfileEnable="0"
   crs:LensManualDistortionAmount="0"
   crs:PerspectiveVertical="0"
   crs:PerspectiveHorizontal="0"
   crs:PerspectiveRotate="0.0"
   crs:PerspectiveScale="100"
   crs:PerspectiveAspect="0"
   crs:PerspectiveUpright="0"
   crs:PerspectiveX="0.00"
   crs:PerspectiveY="0.00"
   crs:AutoLateralCA="0"
   crs:Exposure2012="+1.07"
   crs:Contrast2012="0"
   crs:Highlights2012="-100"
   crs:Shadows2012="+74"
   crs:Whites2012="-100"
   crs:Blacks2012="+68"
   crs:Clarity2012="-10"
   crs:Dehaze="0"
   crs:ToneMapStrength="0"
   crs:ConvertToGrayscale="True"
   crs:ToneCurveName="Medium Contrast"
   crs:ToneCurveName2012="Custom"
   crs:CameraProfile="Adobe Standard"
   crs:CameraProfileDigest="5F02E85A544BE2CCC1DFAA73D311C57C"
   crs:LensProfileSetup="LensDefaults"
   crs:UprightVersion="151388160"
   crs:UprightCenterMode="0"
   crs:UprightCenterNormX="0.5"
   crs:UprightCenterNormY="0.5"
   crs:UprightFocalMode="0"
   crs:UprightFocalLength35mm="35"
   crs:UprightPreview="False"
   crs:UprightTransformCount="6"
   crs:UprightFourSegmentsCount="0"
   crs:GrainSeed="1694885216"
   crs:HasSettings="True"
   crs:AlreadyApplied="False"
   crs:RawFileName="DSC_1783.NEF">
   <exif:ISOSpeedRatings>
    <rdf:Seq>
     <rdf:li>1000</rdf:li>
    </rdf:Seq>
   </exif:ISOSpeedRatings>
   <exif:Flash
    exif:Fired="False"
    exif:Return="0"
    exif:Mode="2"
    exif:Function="False"
    exif:RedEyeMode="False"/>
   <xmpMM:History>
    <rdf:Seq>
     <rdf:li
      stEvt:action="saved"
      stEvt:instanceID="xmp.iid:b4f15c0d-b6b7-9842-93b7-54f923ca9686"
      stEvt:when="2017-11-28T21:24:30-05:00"
      stEvt:softwareAgent="Adobe Photoshop Lightroom 6.10 (Windows)"
      stEvt:changed="/metadata"/>
    </rdf:Seq>
   </xmpMM:History>
   <crs:ToneCurve>
    <rdf:Seq>
     <rdf:li>0, 0</rdf:li>
     <rdf:li>32, 22</rdf:li>
     <rdf:li>64, 56</rdf:li>
     <rdf:li>128, 128</rdf:li>
     <rdf:li>192, 196</rdf:li>
     <rdf:li>255, 255</rdf:li>
    </rdf:Seq>
   </crs:ToneCurve>
   <crs:ToneCurveRed>
    <rdf:Seq>
     <rdf:li>0, 0</rdf:li>
     <rdf:li>255, 255</rdf:li>
    </rdf:Seq>
   </crs:ToneCurveRed>
   <crs:ToneCurveGreen>
    <rdf:Seq>
     <rdf:li>0, 0</rdf:li>
     <rdf:li>255, 255</rdf:li>
    </rdf:Seq>
   </crs:ToneCurveGreen>
   <crs:ToneCurveBlue>
    <rdf:Seq>
     <rdf:li>0, 0</rdf:li>
     <rdf:li>255, 255</rdf:li>
    </rdf:Seq>
   </crs:ToneCurveBlue>
   <crs:ToneCurvePV2012>
    <rdf:Seq>
     <rdf:li>0, 0</rdf:li>
     <rdf:li>87, 43</rdf:li>
     <rdf:li>115, 87</rdf:li>
     <rdf:li>140, 154</rdf:li>
     <rdf:li>175, 210</rdf:li>
     <rdf:li>255, 255</rdf:li>
    </rdf:Seq>
   </crs:ToneCurvePV2012>
   <crs:ToneCurvePV2012Red>
    <rdf:Seq>
     <rdf:li>0, 0</rdf:li>
     <rdf:li>255, 255</rdf:li>
    </rdf:Seq>
   </crs:ToneCurvePV2012Red>
   <crs:ToneCurvePV2012Green>
    <rdf:Seq>
     <rdf:li>0, 0</rdf:li>
     <rdf:li>255, 255</rdf:li>
    </rdf:Seq>
   </crs:ToneCurvePV2012Green>
   <crs:ToneCurvePV2012Blue>
    <rdf:Seq>
     <rdf:li>0, 0</rdf:li>
     <rdf:li>255, 255</rdf:li>
    </rdf:Seq>
   </crs:ToneCurvePV2012Blue>
   <crs:PaintBasedCorrections>
    <rdf:Seq>
     <rdf:li>
      <rdf:Description
       crs:What="Correction"
       crs:CorrectionAmount="1.000000"
       crs:CorrectionActive="true"
       crs:LocalExposure="0.000000"
       crs:LocalSaturation="0.000000"
       crs:LocalContrast="0.000000"
       crs:LocalClarity="0.000000"
       crs:LocalSharpness="1.000000"
       crs:LocalBrightness="0.000000"
       crs:LocalToningHue="0.000000"
       crs:LocalToningSaturation="0.000000"
       crs:LocalExposure2012="0.126500"
       crs:LocalContrast2012="0.080460"
       crs:LocalHighlights2012="0.011490"
       crs:LocalShadows2012="0.000000"
       crs:LocalWhites2012="0.000000"
       crs:LocalBlacks2012="0.000000"
       crs:LocalClarity2012="0.000000"
       crs:LocalDehaze="0.000000"
       crs:LocalLuminanceNoise="0.000000"
       crs:LocalMoire="0.000000"
       crs:LocalDefringe="0.000000"
       crs:LocalTemperature="0.002580"
       crs:LocalTint="0.000000">
      <crs:CorrectionMasks>
       <rdf:Seq>
        <rdf:li>
         <rdf:Description
          crs:What="Mask/Paint"
          crs:MaskValue="1.000000"
          crs:Radius="0.102957"
          crs:Flow="1.000000"
          crs:CenterWeight="0.000000">
         <crs:Dabs>
          <rdf:Seq>
           <rdf:li>d 0.611531 0.695467</rdf:li>
           <rdf:li>d 0.605872 0.649981</rdf:li>
           <rdf:li>d 0.600526 0.604423</rdf:li>
           <rdf:li>d 0.596788 0.558494</rdf:li>
           <rdf:li>d 0.591169 0.513146</rdf:li>
           <rdf:li>d 0.585264 0.467749</rdf:li>
           <rdf:li>d 0.578450 0.422894</rdf:li>
          </rdf:Seq>
         </crs:Dabs>
         </rdf:Description>
        </rdf:li>
        <rdf:li>
         <rdf:Description
          crs:What="Mask/Paint"
          crs:MaskValue="1.000000"
          crs:Radius="0.102957"
          crs:Flow="1.000000"
          crs:CenterWeight="0.000000">
         <crs:Dabs>
          <rdf:Seq>
           <rdf:li>d 0.650284 0.470255</rdf:li>
           <rdf:li>d 0.659597 0.514140</rdf:li>
           <rdf:li>d 0.664254 0.559843</rdf:li>
           <rdf:li>d 0.667297 0.605876</rdf:li>
          </rdf:Seq>
         </crs:Dabs>
         </rdf:Description>
        </rdf:li>
       </rdf:Seq>
      </crs:CorrectionMasks>
      </rdf:Description>
     </rdf:li>
     <rdf:li>
      <rdf:Description
       crs:What="Correction"
       crs:CorrectionAmount="1.000000"
       crs:CorrectionActive="true"
       crs:LocalExposure="0.000000"
       crs:LocalSaturation="0.000000"
       crs:LocalContrast="0.000000"
       crs:LocalClarity="0.000000"
       crs:LocalSharpness="1.000000"
       crs:LocalBrightness="0.000000"
       crs:LocalToningHue="0.000000"
       crs:LocalToningSaturation="0.000000"
       crs:LocalExposure2012="0.103500"
       crs:LocalContrast2012="0.080460"
       crs:LocalHighlights2012="0.011490"
       crs:LocalShadows2012="0.000000"
       crs:LocalWhites2012="0.000000"
       crs:LocalBlacks2012="0.000000"
       crs:LocalClarity2012="0.000000"
       crs:LocalDehaze="0.000000"
       crs:LocalLuminanceNoise="0.000000"
       crs:LocalMoire="0.000000"
       crs:LocalDefringe="0.000000"
       crs:LocalTemperature="0.002580"
       crs:LocalTint="0.000000">
      <crs:CorrectionMasks>
       <rdf:Seq>
        <rdf:li>
         <rdf:Description
          crs:What="Mask/Paint"
          crs:MaskValue="1.000000"
          crs:Radius="0.102957"
          crs:Flow="1.000000"
          crs:CenterWeight="0.000000">
         <crs:Dabs>
          <rdf:Seq>
           <rdf:li>d 0.592628 0.584986</rdf:li>
          </rdf:Seq>
         </crs:Dabs>
         </rdf:Description>
        </rdf:li>
        <rdf:li>
         <rdf:Description
          crs:What="Mask/Paint"
          crs:MaskValue="1.000000"
          crs:Radius="0.102957"
          crs:Flow="1.000000"
          crs:CenterWeight="0.000000">
         <crs:Dabs>
          <rdf:Seq>
           <rdf:li>d 0.603025 0.471671</rdf:li>
          </rdf:Seq>
         </crs:Dabs>
         </rdf:Description>
        </rdf:li>
       </rdf:Seq>
      </crs:CorrectionMasks>
      </rdf:Description>
     </rdf:li>
    </rdf:Seq>
   </crs:PaintBasedCorrections>
  </rdf:Description>
 </rdf:RDF>
</x:xmpmeta>
<?xpacket end="w"?>
